X: 420
T: Lambeth Wells
P: Longways for as many as will
%R: march, reel
B: "The Dancing-Master: Containing Directions and Tunes for Dancing" printed by W. Pearson for John Walsh, London ca. 1709
S: 7: DMDfD http://digital.nls.uk/special-collections-of-printed-music/pageturner.cfm?id=89751228 p.226
Z: 2013 John Chambers <jc:trillian.mit.edu>
M: C|
L: 1/8
K: Gm
% - - - - - - - - - - - - - - - - - - - - - - - - -
BA "^:S:"|\
B2d2 c2e2 | A2c2 B2d2 | ed cB cd e2 | d2 cB AG ^F2 |\
G2AB A2c2 | B2 GA Bc de | d2cB AB c^F | G2D2 B,2G,2 |
g2f/g/ a3g/a/ | b2a/g/ a3B/A/ | B3A/B/ c3B/A/ | B3A/G/ ^F2D2 |\
B,2D2 G2GB | dB df d2 B2 | g2d2 edcB | (cA) B^F G2G,2 |]
% - - - - - - - - - - - - - - - - - - - - - - - - -
%%begintext align
%%    The 1. man clap hands with his Partner and cast off, then lead through the 3. cu. and cast up in the 2.
%% cu. place .| Clap hands and cast off below the 3. cu. and lead through between the 3. and 2. cu. into
%% your own places :|
%%    The 1. man cross over with the 2. wo. and 1. wo. with the 2. man, then all four hands quite round .|
%% Right and left with yur Partners quite round, till the 1. cu. come into the 2. cu. place.
%% [DMDfD]
%%endtext
%%sep 1 8 500

%%sep 1 1 500
%%sep 1 1 500
